svgs/regular/book-open-cover.svg

<svg xmlns="http://www.w3.org/2000/svg" viewBox="0 0 640 512"><!--! Font Awesome Pro 6.0.0-alpha3 by @fontawesome - https://fontawesome.com License - https://fontawesome.com/license (Commercial License) --><path d="M600.2 32.97L592 35.03v368.1L320 463.6l-272-60.45V35.03L39.76 32.97C19.56 27.92 0 43.19 0 64.01v351.1c0 15 10.42 27.98 25.06 31.24l288 63.1c4.572 1.016 9.311 1.016 13.88 0l288-63.1C629.6 443.1 640 431 640 416V64.01C640 43.19 620.4 27.92 600.2 32.97zM97.97 375.2l216 56C315.9 431.8 317.1 432 320 432s4.062-.25 6.031-.7813l216-56C552.6 372.5 560 362.9 560 352V24c0-7.125-3.156-13.91-8.656-18.44c-5.5-4.562-12.66-6.469-19.72-5.156L320 39.59L108.4 .4062C101.3-.9062 94.16 1 88.66 5.562C83.16 10.09 80 16.88 80 24V352C80 362.9 87.41 372.5 97.97 375.2zM344 83.96L512 52.84v280.6l-168 43.56V83.96zM128 52.84l168 31.12v293L128 333.4V52.84z"/></svg>

<svg xmlns="http://www.w3.org/2000/svg" viewBox="0 0 640 512"><!-- Font Awesome Pro 6.0.0-alpha2 by @fontawesome - https://fontawesome.com License - https://fontawesome.com/license (Commercial License) --><path d="M600.238 32.969L592 35.031V403.156L320 463.609L48 403.156V35.031L39.762 32.969C19.564 27.922 0 43.195 0 64.012V416C0 431 10.418 443.984 25.059 447.242L313.059 511.238C317.631 512.254 322.369 512.254 326.941 511.238L614.941 447.242C629.582 443.984 640 431 640 416V64.012C640 43.195 620.436 27.922 600.238 32.969ZM97.969 375.219L313.969 431.219C315.938 431.75 317.969 432 320 432S324.062 431.75 326.031 431.219L542.031 375.219C552.594 372.5 560 362.938 560 352V24C560 16.875 556.844 10.094 551.344 5.562C545.844 1 538.688 -0.906 531.625 0.406L320 39.594L108.375 0.406C101.344 -0.906 94.156 1 88.656 5.562C83.156 10.094 80 16.875 80 24V352C80 362.938 87.406 372.5 97.969 375.219ZM344 83.961L512 52.844V333.438L344 376.996V83.961ZM128 52.844L296 83.961V376.996L128 333.438V52.844Z"/></svg>
